src/images/lock.svg

<svg width="14" height="18" viewBox="0 0 14 18" fill="none" xmlns="http://www.w3.org/2000/svg">
  <path d="M11.6957 7.04313V4.69567C11.6957 2.10207 9.59314 0 7 0C4.40646 0 2.30433 2.10207 2.30433 4.69567V7.04313C1.44002 7.04313 0.739197 7.74395 0.739197 8.60827V16.4348C0.739197 17.2993 1.44002 18 2.30433 18H11.6957C12.5601 18 13.2607 17.2992 13.2607 16.4348V8.60827C13.2608 7.74395 12.5601 7.04313 11.6957 7.04313ZM3.86957 4.69567C3.86957 2.96654 5.27122 1.56524 7 1.56524C8.72888 1.56524 10.1305 2.96649 10.1305 4.69567V7.04313H3.86957V4.69567ZM11.6957 16.4347H2.30433V8.60866H11.6957V16.4347ZM6.21738 13.0873V14.0869C6.21738 14.5187 6.56804 14.8695 7 14.8695C7.43186 14.8695 7.78262 14.5187 7.78262 14.0869V13.0873C8.24802 12.816 8.56524 12.3168 8.56524 11.7391C8.56524 10.8744 7.86431 10.1735 7 10.1735C6.13568 10.1735 5.43486 10.8744 5.43486 11.7391C5.43486 12.3168 5.75178 12.816 6.21738 13.0873Z" fill="#A1C760"/>
  <path d="M11.6957 7.04313V4.69567C11.6957 2.10207 9.59314 0 7 0C4.40646 0 2.30433 2.10207 2.30433 4.69567V7.04313C1.44002 7.04313 0.739197 7.74395 0.739197 8.60827V16.4348C0.739197 17.2993 1.44002 18 2.30433 18H11.6957C12.5601 18 13.2607 17.2992 13.2607 16.4348V8.60827C13.2608 7.74395 12.5601 7.04313 11.6957 7.04313ZM3.86957 4.69567C3.86957 2.96654 5.27122 1.56524 7 1.56524C8.72888 1.56524 10.1305 2.96649 10.1305 4.69567V7.04313H3.86957V4.69567ZM11.6957 16.4347H2.30433V8.60866H11.6957V16.4347ZM6.21738 13.0873V14.0869C6.21738 14.5187 6.56804 14.8695 7 14.8695C7.43186 14.8695 7.78262 14.5187 7.78262 14.0869V13.0873C8.24802 12.816 8.56524 12.3168 8.56524 11.7391C8.56524 10.8744 7.86431 10.1735 7 10.1735C6.13568 10.1735 5.43486 10.8744 5.43486 11.7391C5.43486 12.3168 5.75178 12.816 6.21738 13.0873Z" fill="#333333"/>
</svg>

<svg width="14" height="18" fill="none" xmlns="http://www.w3.org/2000/svg"><path d="M11.696 7.043V4.696a4.696 4.696 0 0 0-9.392 0v2.347c-.864 0-1.565.7-1.565 1.565v7.827C.74 17.299 1.44 18 2.304 18h9.392c.864 0 1.565-.7 1.565-1.565V8.608c0-.864-.7-1.565-1.565-1.565zM3.87 4.696a3.13 3.13 0 1 1 6.26 0v2.347H3.87V4.696zm7.826 11.739H2.304V8.609h9.392v7.826zm-5.479-3.348v1a.783.783 0 0 0 1.566 0v-1A1.56 1.56 0 0 0 7 10.174a1.56 1.56 0 1 0-.783 2.914z" fill="#A1C760"/><path d="M11.696 7.043V4.696a4.696 4.696 0 0 0-9.392 0v2.347c-.864 0-1.565.7-1.565 1.565v7.827C.74 17.299 1.44 18 2.304 18h9.392c.864 0 1.565-.7 1.565-1.565V8.608c0-.864-.7-1.565-1.565-1.565zM3.87 4.696a3.13 3.13 0 1 1 6.26 0v2.347H3.87V4.696zm7.826 11.739H2.304V8.609h9.392v7.826zm-5.479-3.348v1a.783.783 0 0 0 1.566 0v-1A1.56 1.56 0 0 0 7 10.174a1.56 1.56 0 1 0-.783 2.914z" fill="#333"/></svg>
